svgs/sharp-solid/fire-extinguisher.svg

<svg xmlns="http://www.w3.org/2000/svg" viewBox="0 0 512 512"><!--! Font Awesome Pro 6.6.0 by @fontawesome - https://fontawesome.com License - https://fontawesome.com/license (Commercial License) Copyright 2024 Fonticons, Inc. --><path d="M128 0l96 0 0 56 64 0 0-24L512 0l0 160L288 128l0-24-64 0 0 34.8c37.8 18 64 56.5 64 101.2l0 144L64 384l0-144c0-44.7 26.2-83.2 64-101.2l0-28.8c-36.2 11.1-66 36.9-82.3 70.5l-43.1-21C26.7 109.8 72.7 72.6 128 60.4L128 0zM288 512L64 512l0-96 224 0 0 96zM176 96a16 16 0 1 0 0-32 16 16 0 1 0 0 32z"/></svg>

<svg xmlns="http://www.w3.org/2000/svg" viewBox="0 0 512 512"><!--! Font Awesome Pro 6.4.0 by @fontawesome - https://fontawesome.com License - https://fontawesome.com/license (Commercial License) Copyright 2023 Fonticons, Inc. --><path d="M128 0h96V56h64V32L512 0V160L288 128V104H224v34.8c37.8 18 64 56.5 64 101.2V384H64V240c0-44.7 26.2-83.2 64-101.2V110c-36.2 11.1-66 36.9-82.3 70.5l-43.1-21C26.7 109.8 72.7 72.6 128 60.4V0zM288 512H64V416H288v96zM176 96a16 16 0 1 0 0-32 16 16 0 1 0 0 32z"/></svg>
